X:1
T:Gardiner?s Favourite [1]
M:C|
L:1/8
R:Reel
K:G
DF||:G2 DG EGDE|GABG AE (3EEE|G2 DG
EGAB|cedc BcAF|
G2 DG EGDE|GABG AE (3EEE|G2 DG
EGAB|cedc BG G2:|
|:gd (3ddd edBG|BdBG AE (3EEE|gd



